svg/pgbackweb-light.svg

<svg xmlns="http://www.w3.org/2000/svg" viewBox="5.23 5.43 1013.4 1012.31"><path d="M969.814 620.762c6.529 1.462 12.398 2.668 18.159 4.24 24.19 6.601 35.407 24.705 28.782 47.985-9.537 33.514-24.727 64.848-40.604 95.969-31.13 61.014-79.075 108.043-134.141 148.702-38.824 28.666-80.438 53.753-126.802 69.711-38.654 13.304-78.203 23.531-119.525 27.488a634 634 0 0 1-116.283.418c-56.913-5.021-111.722-19.133-164.004-41.892-82.444-35.89-150.573-89.182-205.565-157.817-48.306-60.29-81.688-127.642-95.554-202.982C-4.954 508.081 5.786 406.86 53.214 310.211c29.499-60.106 70.778-112.177 119.749-158.626 62.618-59.391 136.654-100.159 220.703-125.18C446.139 10.783 499.327 3.38 554.033 5.919c75.97 3.529 148.389 20.625 216.269 54.068 19.287 9.5 38.04 19.998 57.072 30.056 3.998-2.012 3.858-6.015 5.211-9.147 6.813-15.761 18.008-23.647 33.688-23.528 18.122.135 31.283 7.996 36.431 24.665 12.423 40.238 27.411 79.761 37.073 120.774 1.497 6.353 3.174 12.889 1.457 19.496-3.469 13.345-12.703 21.152-26.819 22.873-1.134.138-2.281.319-3.414.279-45.465-1.625-90.706 4.394-136.142 3.646-18.906-.311-32.063-12.979-32.203-31.25-.047-6.272-.712-12.605 2.532-18.569 2.912-5.349-1.348-8.124-5.056-10.724-14.162-9.929-29.721-17.509-45.667-24.299-49.751-21.179-102.02-32.75-156.293-31.931-71.313 1.075-138.086 19.096-198.681 56.327-42.896 26.354-82.55 56.597-114.423 94.88-32.123 38.583-58.745 80.653-73.425 128.557-15.004 48.957-19.397 99.046-15.245 149.947 6.036 73.994 37.819 137.504 86.232 193.727 52.038 60.429 117.687 101.991 196.079 124.068 27.947 7.87 56.67 12.122 85.985 13.417 32.057 1.416 63.903 1.275 95.654-3.328 61.276-8.883 115.974-32.242 164.37-69.349 36.08-27.664 66.014-60.868 91.688-97.446 14.087-20.065 22.694-43.091 31.304-65.811 2.092-5.518 1.648-11.918 2.445-17.904 2.217-16.71 23.05-33.676 43.211-27.239 11.61 3.708 23.806 5.723 36.448 8.588M788.436 171.064c5.756 3.643 10.965 7.897 15.617 12.792 3.877 4.085 3.894 7.52-1.232 10.828-4.229 2.729-9.034 4.904-11.873 9.282-1.356 2.093-2.884 4.358-1.816 6.919 1.227 2.944 4.213 2.501 6.698 2.36 7.112-.405 14.207-1.181 21.322-1.525 23.946-1.151 47.894-2.278 71.85-3.188 6.667-.254 8.478-2.793 6.722-8.917-2.726-9.51-4.727-19.214-7.376-28.748-6.377-22.966-12.953-45.881-20.13-71.228-7.054 11.221-12.719 20.593-18.75 29.742-9.764 14.808-16.12 16.264-31.281 6.451-10.65-6.893-20.273-15.3-31.131-21.842C692.409 56.945 589.16 33.891 478.51 46.808c-74.406 8.685-143.125 34.688-205.568 74.97-45.358 29.259-85.372 64.149-119.482 105.371C120 267.582 91.257 310.7 71.964 359.025c-18.253 45.721-26.838 93.33-28.424 142.411-1.874 57.999 4.675 114.601 25.682 169.161 33.103 85.985 88.69 156.229 163.311 212.779 54.171 41.053 114.629 69.675 181.865 85.216 61.856 14.296 124.416 15.533 187.151 9.38 37.331-3.663 72.937-15.476 107.977-28.101 56.542-20.372 105.167-53.112 148.824-92.444 51.814-46.678 88.173-103.445 111.992-167.665 3.316-8.943 6.727-17.927 8.288-27.705-12.901-4.459-25.88-6.447-38.488-9.752-7.321-1.921-10.614-.077-13.157 6.98-16.608 46.041-39.31 88.74-73.326 125.566-27.222 29.471-55.171 58.085-89.498 79.999-85.332 54.474-179.361 75.069-280.618 63.2-64.433-7.55-125.106-26.732-180.524-60.4-94.126-57.187-159.041-135.991-191.792-238.504-16.255-50.871-17.665-103.132-11.952-155.755 5.148-47.433 17.789-92.762 40.733-135.204 24.476-45.27 56.304-85.102 94.671-120.407 51.651-47.526 110.668-82.917 179.024-103.441 53.659-16.11 108.408-23.469 164.655-18.025 34.178 3.309 67.64 9.437 100.168 20.514 38.834 13.223 73.772 33.496 109.91 54.236" style="fill:#fff"/><path d="M686.025 265.253c23.456 7.506 43.467 19.721 62.366 33.599 37.138 27.269 67.697 59.751 85.477 102.098 2.895 6.895 6.575 13.519 11.707 19.111 16.359 17.816 31.968 12.73 43.268-5.268 5.416-8.625 5.743-18.451 4.377-28.047-2.122-14.928-5.09-29.587-11.546-43.67-9.711-21.179 4.932-40.706 30.824-42.252 19.958-1.192 39.929-2.039 59.945-1.696 24.371.416 36.893 11.243 38.992 34.374 2.334 25.663 5.542 51.317 6.354 77.033 1.491 47.171-15.548 87.933-48.404 123.107-28.469 30.478-65.524 42.983-105.837 48.546-30.548 4.216-60.403 1.292-87.586-14.522-3.951-2.3-6.951-1.476-10.123.873-4.301 3.182-8.384 7.019-13.692 8.281-9.883 2.347-10.985 8.758-10.064 16.943 4.088 36.363 4.774 72.875 4.784 109.411 0 4.669-.04 9.353-.385 14.009-2.334 31.645-27.119 54.054-60.218 54.685-24.555.47-49.15.414-73.652 1.794-38.52 2.171-63.034-27.794-63.644-60.13-.107-5.77-.231-11.551-.008-17.314.185-4.827-1.616-6.951-6.903-6.958-31.146-.038-62.292-.222-93.439-.504-6.134-.057-8.947 2.152-8.5 8.286.824 11.279-.738 22.491-1.629 33.705-1.2 15.11-12.383 23.6-23.894 31.411-7.273 4.936-15.658 8.139-24.722 8.553-31.641 1.445-63.33 4.095-94.961 1.324-23.169-2.03-43.275-19.694-49.462-41.252-2.445-8.525-3.502-17.195-3.495-26.06.046-56.896-.015-113.791-.094-170.687-.005-3.242.664-6.582-.833-9.901-4.212-1.61-7.665.783-11.259 2.117-11.708 4.337-22.525 10.763-34.872 13.626-11.362 2.635-18.711.082-24.342-8.694-5.655-8.821-5.163-15.134 2.835-23.92 9.095-9.995 21.606-16.141 31.609-25.2 10.809-9.788 21.984-19.214 33.182-28.595 6.2-5.193 8.473-12.227 10.739-19.309 12.746-39.841 33.803-75.019 64.297-104.698 28.109-27.354 63.264-43.833 99.68-58.105 6.905-2.706 14.558-2.882 21.929-3.15 5.687-.206 9.481-2.46 13.282-6.208 51.473-50.779 120.793-61.759 184.882-20.952 12.774 17.486 33.721 18.442 53.035 24.206M413.259 411.264c-4.62-18.494-7.965-37.051-5.287-56.231 1.251-8.955 1.542-18.033 2.276-27.055.358-4.391-.847-7.363-6.239-5.623-18.469 5.965-36.507 12.748-51.807 24.889-35.531 28.198-52.597 66.939-66.188 107.56-2.236 6.69-3.653 13.8-3.648 21.055.038 77.501-1.122 155.006 1.265 232.495.475 15.409 7.755 23.118 23.923 22.675a3741 3741 0 0 1 73.688-1.294c10.292-.078 18.353-8.867 18.39-19.026.042-10.438-.188-20.883-.455-31.321-.371-14.412 6.509-30.805 27.389-31.044 7.965-.09 15.967-.653 23.96-.572 29.998.305 59.994.695 89.992 1.011 8.288.087 16.581-.112 24.864.068 16.304.354 23.148 6.007 24.298 21.475 1.038 13.961 1.12 28.001 1.231 42.009.118 14.493 5.756 20.506 21.09 20.654 22.287.212 44.579.116 66.868-.026 18.485-.121 26.784-8.486 26.531-26.446-.681-48.636-1.481-97.27-2.035-145.905-.173-15.313 4.754-21.881 19.616-27.432 5.076-1.893 9.987-3.96 14.518-6.945 12.036-7.936 23.587-8.907 37.355-1.707 41.971 21.948 85.348 24.413 129.007 4.236 44.421-20.527 66.683-55.877 72.055-101.99 3.367-28.902-5.171-57.407-3.558-86.28.209-3.753-1.989-5.926-5.777-5.446-13.556 1.722-27.268.948-41.167 1.87-.458 6.808 1.683 12.496 3.034 18.287 5.423 23.246 8.194 46.422.796 69.898-5.575 17.694-14.292 33.125-31.355 42.628-27.959 15.573-66.467 5.949-85.611-20.895-6.666-9.349-11.831-19.45-16.174-29.93-9.704-23.423-21.691-45.394-40.829-63.215-17.153-15.975-36.389-29.197-57.054-40.495-10.309-5.635-21.454-9.752-33.546-6.307-13.774 3.922-23.311-1.129-32.338-10.861-14.412-15.541-31.21-28.633-52.245-34.817-55.249-16.243-113.42 17.132-126.047 71.601-3.838 16.556-4.356 33.062-1.527 49.799 3.046 18.036 7.675 35.208 19.578 50.227 36.281 45.769 111.002 57.413 154.297 15.923 8.43-8.083 16.478-8.319 24.912-1.532 9.642 7.762 10.636 14.109 3.848 24.352-11.568 17.447-28.683 28.27-48.239 35.18-27.841 9.841-57.191 10.457-85.234 3.405-53.707-13.502-90.264-46.4-108.421-98.902" style="fill:#fff"/><path d="M748.905 437.404c-11.42 6.965-22.684 6.175-30.789-1.697-8.71-8.46-10.344-19.737-4.232-29.217 6.293-9.764 18.221-13.615 29.732-9.604 17.26 6.016 20.183 26.298 5.289 40.518" style="fill:#fff"/></svg>

<svg xmlns="http://www.w3.org/2000/svg" viewBox="5.23 5.43 1013.4 1012.31">
  <path opacity="1.000000" stroke="none" d="M 969.814 620.762 C 976.343 622.224 982.212 623.43 987.973 625.002 C 1012.163 631.603 1023.38 649.707 1016.755 672.987 C 1007.218 706.501 992.028 737.835 976.151 768.956 C 945.021 829.97 897.076 876.999 842.01 917.658 C 803.186 946.324 761.572 971.411 715.208 987.369 C 676.554 1000.673 637.005 1010.9 595.683 1014.857 C 556.803 1018.58 517.989 1018.68 479.4 1015.275 C 422.487 1010.254 367.678 996.142 315.396 973.383 C 232.952 937.493 164.823 884.201 109.831 815.566 C 61.525 755.276 28.143 687.924 14.277 612.584 C -4.954 508.081 5.786 406.86 53.214 310.211 C 82.713 250.105 123.992 198.034 172.963 151.585 C 235.581 92.194 309.617 51.426 393.666 26.405 C 446.139 10.783 499.327 3.38 554.033 5.919 C 630.003 9.448 702.422 26.544 770.302 59.987 C 789.589 69.487 808.342 79.985 827.374 90.043 C 831.372 88.031 831.232 84.028 832.585 80.896 C 839.398 65.135 850.593 57.249 866.273 57.368 C 884.395 57.503 897.556 65.364 902.704 82.033 C 915.127 122.271 930.115 161.794 939.777 202.807 C 941.274 209.16 942.951 215.696 941.234 222.303 C 937.765 235.648 928.531 243.455 914.415 245.176 C 913.281 245.314 912.134 245.495 911.001 245.455 C 865.536 243.83 820.295 249.849 774.859 249.101 C 755.953 248.79 742.796 236.122 742.656 217.851 C 742.609 211.579 741.944 205.246 745.188 199.282 C 748.1 193.933 743.84 191.158 740.132 188.558 C 725.97 178.629 710.411 171.049 694.465 164.259 C 644.714 143.08 592.445 131.509 538.172 132.328 C 466.859 133.403 400.086 151.424 339.491 188.655 C 296.595 215.009 256.941 245.252 225.068 283.535 C 192.945 322.118 166.323 364.188 151.643 412.092 C 136.639 461.049 132.246 511.138 136.398 562.039 C 142.434 636.033 174.217 699.543 222.63 755.766 C 274.668 816.195 340.317 857.757 418.709 879.834 C 446.656 887.704 475.379 891.956 504.694 893.251 C 536.751 894.667 568.597 894.526 600.348 889.923 C 661.624 881.04 716.322 857.681 764.718 820.574 C 800.798 792.91 830.732 759.706 856.406 723.128 C 870.493 703.063 879.1 680.037 887.71 657.317 C 889.802 651.799 889.358 645.399 890.155 639.413 C 892.372 622.703 913.205 605.737 933.366 612.174 C 944.976 615.882 957.172 617.897 969.814 620.762 M 788.436 171.064 C 794.192 174.707 799.401 178.961 804.053 183.856 C 807.93 187.941 807.947 191.376 802.821 194.684 C 798.592 197.413 793.787 199.588 790.948 203.966 C 789.592 206.059 788.064 208.324 789.132 210.885 C 790.359 213.829 793.345 213.386 795.83 213.245 C 802.942 212.84 810.037 212.064 817.152 211.72 C 841.098 210.569 865.046 209.442 889.002 208.532 C 895.669 208.278 897.48 205.739 895.724 199.615 C 892.998 190.105 890.997 180.401 888.348 170.867 C 881.971 147.901 875.395 124.986 868.218 99.639 C 861.164 110.86 855.499 120.232 849.468 129.381 C 839.704 144.189 833.348 145.645 818.187 135.832 C 807.537 128.939 797.914 120.532 787.056 113.99 C 692.409 56.945 589.16 33.891 478.51 46.808 C 404.104 55.493 335.385 81.496 272.942 121.778 C 227.584 151.037 187.57 185.927 153.46 227.149 C 120 267.582 91.257 310.7 71.964 359.025 C 53.711 404.746 45.126 452.355 43.54 501.436 C 41.666 559.435 48.215 616.037 69.222 670.597 C 102.325 756.582 157.912 826.826 232.533 883.376 C 286.704 924.429 347.162 953.051 414.398 968.592 C 476.254 982.888 538.814 984.125 601.549 977.972 C 638.88 974.309 674.486 962.496 709.526 949.871 C 766.068 929.499 814.693 896.759 858.35 857.427 C 910.164 810.749 946.523 753.982 970.342 689.762 C 973.658 680.819 977.069 671.835 978.63 662.057 C 965.729 657.598 952.75 655.61 940.142 652.305 C 932.821 650.384 929.528 652.228 926.985 659.285 C 910.377 705.326 887.675 748.025 853.659 784.851 C 826.437 814.322 798.488 842.936 764.161 864.85 C 678.829 919.324 584.8 939.919 483.543 928.05 C 419.11 920.5 358.437 901.318 303.019 867.65 C 208.893 810.463 143.978 731.659 111.227 629.146 C 94.972 578.275 93.562 526.014 99.275 473.391 C 104.423 425.958 117.064 380.629 140.008 338.187 C 164.484 292.917 196.312 253.085 234.679 217.78 C 286.33 170.254 345.347 134.863 413.703 114.339 C 467.362 98.229 522.111 90.87 578.358 96.314 C 612.536 99.623 645.998 105.751 678.526 116.828 C 717.36 130.051 752.298 150.324 788.436 171.064 Z" style="fill: rgb(255, 255, 255);" transform="matrix(1, 0, 0, 1, -5.684341886080802e-14, -1.4210854715202004e-14)"/>
  <path opacity="1.000000" stroke="none" d="M 686.025 265.253 C 709.481 272.759 729.492 284.974 748.391 298.852 C 785.529 326.121 816.088 358.603 833.868 400.95 C 836.763 407.845 840.443 414.469 845.575 420.061 C 861.934 437.877 877.543 432.791 888.843 414.793 C 894.259 406.168 894.586 396.342 893.22 386.746 C 891.098 371.818 888.13 357.159 881.674 343.076 C 871.963 321.897 886.606 302.37 912.498 300.824 C 932.456 299.632 952.427 298.785 972.443 299.128 C 996.814 299.544 1009.336 310.371 1011.435 333.502 C 1013.769 359.165 1016.977 384.819 1017.789 410.535 C 1019.28 457.706 1002.241 498.468 969.385 533.642 C 940.916 564.12 903.861 576.625 863.548 582.188 C 833 586.404 803.145 583.48 775.962 567.666 C 772.011 565.366 769.011 566.19 765.839 568.539 C 761.538 571.721 757.455 575.558 752.147 576.82 C 742.264 579.167 741.162 585.578 742.083 593.763 C 746.171 630.126 746.857 666.638 746.867 703.174 C 746.867 707.843 746.827 712.527 746.482 717.183 C 744.148 748.828 719.363 771.237 686.264 771.868 C 661.709 772.338 637.114 772.282 612.612 773.662 C 574.092 775.833 549.578 745.868 548.968 713.532 C 548.861 707.762 548.737 701.981 548.96 696.218 C 549.145 691.391 547.344 689.267 542.057 689.26 C 510.911 689.222 479.765 689.038 448.618 688.756 C 442.484 688.699 439.671 690.908 440.118 697.042 C 440.942 708.321 439.38 719.533 438.489 730.747 C 437.289 745.857 426.106 754.347 414.595 762.158 C 407.322 767.094 398.937 770.297 389.873 770.711 C 358.232 772.156 326.543 774.806 294.912 772.035 C 271.743 770.005 251.637 752.341 245.45 730.783 C 243.005 722.258 241.948 713.588 241.955 704.723 C 242.001 647.827 241.94 590.932 241.861 534.036 C 241.856 530.794 242.525 527.454 241.028 524.135 C 236.816 522.525 233.363 524.918 229.769 526.252 C 218.061 530.589 207.244 537.015 194.897 539.878 C 183.535 542.513 176.186 539.96 170.555 531.184 C 164.9 522.363 165.392 516.05 173.39 507.264 C 182.485 497.269 194.996 491.123 204.999 482.064 C 215.808 472.276 226.983 462.85 238.181 453.469 C 244.381 448.276 246.654 441.242 248.92 434.16 C 261.666 394.319 282.723 359.141 313.217 329.462 C 341.326 302.108 376.481 285.629 412.897 271.357 C 419.802 268.651 427.455 268.475 434.826 268.207 C 440.513 268.001 444.307 265.747 448.108 261.999 C 499.581 211.22 568.901 200.24 632.99 241.047 C 645.764 258.533 666.711 259.489 686.025 265.253 M 413.259 411.264 C 408.639 392.77 405.294 374.213 407.972 355.033 C 409.223 346.078 409.514 337 410.248 327.978 C 410.606 323.587 409.401 320.615 404.009 322.355 C 385.54 328.32 367.502 335.103 352.202 347.244 C 316.671 375.442 299.605 414.183 286.014 454.804 C 283.778 461.494 282.361 468.604 282.366 475.859 C 282.404 553.36 281.244 630.865 283.631 708.354 C 284.106 723.763 291.386 731.472 307.554 731.029 C 332.119 730.355 356.67 729.925 381.242 729.735 C 391.534 729.657 399.595 720.868 399.632 710.709 C 399.674 700.271 399.444 689.826 399.177 679.388 C 398.806 664.976 405.686 648.583 426.566 648.344 C 434.531 648.254 442.533 647.691 450.526 647.772 C 480.524 648.077 510.52 648.467 540.518 648.783 C 548.806 648.87 557.099 648.671 565.382 648.851 C 581.686 649.205 588.53 654.858 589.68 670.326 C 590.718 684.287 590.8 698.327 590.911 712.335 C 591.029 726.828 596.667 732.841 612.001 732.989 C 634.288 733.201 656.58 733.105 678.869 732.963 C 697.354 732.842 705.653 724.477 705.4 706.517 C 704.719 657.881 703.919 609.247 703.365 560.612 C 703.192 545.299 708.119 538.731 722.981 533.18 C 728.057 531.287 732.968 529.22 737.499 526.235 C 749.535 518.299 761.086 517.328 774.854 524.528 C 816.825 546.476 860.202 548.941 903.861 528.764 C 948.282 508.237 970.544 472.887 975.916 426.774 C 979.283 397.872 970.745 369.367 972.358 340.494 C 972.567 336.741 970.369 334.568 966.581 335.048 C 953.025 336.77 939.313 335.996 925.414 336.918 C 924.956 343.726 927.097 349.414 928.448 355.205 C 933.871 378.451 936.642 401.627 929.244 425.103 C 923.669 442.797 914.952 458.228 897.889 467.731 C 869.93 483.304 831.422 473.68 812.278 446.836 C 805.612 437.487 800.447 427.386 796.104 416.906 C 786.4 393.483 774.413 371.512 755.275 353.691 C 738.122 337.716 718.886 324.494 698.221 313.196 C 687.912 307.561 676.767 303.444 664.675 306.889 C 650.901 310.811 641.364 305.76 632.337 296.028 C 617.925 280.487 601.127 267.395 580.092 261.211 C 524.843 244.968 466.672 278.343 454.045 332.812 C 450.207 349.368 449.689 365.874 452.518 382.611 C 455.564 400.647 460.193 417.819 472.096 432.838 C 508.377 478.607 583.098 490.251 626.393 448.761 C 634.823 440.678 642.871 440.442 651.305 447.229 C 660.947 454.991 661.941 461.338 655.153 471.581 C 643.585 489.028 626.47 499.851 606.914 506.761 C 579.073 516.602 549.723 517.218 521.68 510.166 C 467.973 496.664 431.416 463.766 413.259 411.264 Z" style="fill: rgb(255, 255, 255);" transform="matrix(1, 0, 0, 1, -5.684341886080802e-14, -1.4210854715202004e-14)"/>
  <path opacity="1.000000" stroke="none" d="M 748.905 437.404 C 737.485 444.369 726.221 443.579 718.116 435.707 C 709.406 427.247 707.772 415.97 713.884 406.49 C 720.177 396.726 732.105 392.875 743.616 396.886 C 760.876 402.902 763.799 423.184 748.905 437.404 Z" style="fill: rgb(255, 255, 255);" transform="matrix(1, 0, 0, 1, -5.684341886080802e-14, -1.4210854715202004e-14)"/>
</svg>
